X: 19
T: Schottis efter Salmakar Kalle
S: efter [[!Salmakar Kalle]] (Carl Adolf Österberg, Österbybruk, 1842-1913)
O: Uppland, Österbybruk
B: Spela nyckelharpa 2, nr 19
Z: Nils L
R: Schottis
M: 4/4
L: 1/8
K: G
{/G}B2 (BG) B2 (BA) | GGGB d2 d2 | FFFA c2 BA | G2 (GB) d2 z2 |
{/G}B2 (BG) B2 (BA) | GGGB d2 d2 | FFFA c2 (FA) | ((3ABA G2) G2 z2 :|
c2 e2 c2 e2 | G2 GB GB d2 | D2 FA (cA) FA | G2 GB d2 z2 |
c2 e2 c2 e2 | GG (GB) GB d2 | D2 FA (cA) FA | ((3ABA G2) G2 z2 :|

